src/lib/packages/icons/src/assets/filled/chat-code.svg

<svg width="24" height="24" viewBox="0 0 24 24" fill="none" xmlns="http://www.w3.org/2000/svg">
<path d="M12.001 3C7.031 3 3.00197 7.02902 3.00197 11.999C3.00197 13.339 3.30205 14.619 3.83205 15.758C4.04205 16.198 4.04211 16.708 3.89211 17.178L3.05202 19.678C2.79202 20.458 3.54204 21.208 4.32204 20.948L6.82204 20.108C7.29204 19.958 7.80196 19.958 8.24196 20.168C9.38196 20.698 10.662 20.998 12.002 20.998C16.972 20.998 21.001 16.969 21.001 11.999C21 7.02902 16.971 3 12.001 3ZM11.0301 13.47C11.3231 13.763 11.3231 14.238 11.0301 14.531C10.8841 14.677 10.692 14.751 10.5 14.751C10.308 14.751 10.116 14.678 9.96999 14.531L7.96999 12.531C7.67699 12.238 7.67699 11.763 7.96999 11.47L9.96999 9.46997C10.263 9.17697 10.738 9.17697 11.031 9.46997C11.324 9.76297 11.324 10.238 11.031 10.531L9.56106 12.001L11.0301 13.47ZM16.0301 12.53L14.0301 14.53C13.8841 14.676 13.692 14.75 13.5 14.75C13.308 14.75 13.116 14.677 12.97 14.53C12.677 14.237 12.677 13.762 12.97 13.469L14.44 11.999L12.97 10.529C12.677 10.236 12.677 9.76102 12.97 9.46802C13.263 9.17502 13.738 9.17502 14.031 9.46802L16.031 11.468C16.323 11.762 16.3231 12.238 16.0301 12.53Z" fill="currentColor"/>
</svg>

<svg xmlns="http://www.w3.org/2000/svg" width="24" height="24" fill="none"><path fill="currentColor" d="M12.001 3a9 9 0 0 0-8.999 8.999c0 1.34.3 2.62.83 3.759.21.44.21.95.06 1.42l-.84 2.5c-.26.78.49 1.53 1.27 1.27l2.5-.84c.47-.15.98-.15 1.42.06 1.14.53 2.42.83 3.76.83A8.999 8.999 0 1 0 12.001 3Zm-.97 10.47a.75.75 0 0 1-1.061 1.061l-2-2a.75.75 0 0 1 0-1.061l2-2a.75.75 0 1 1 1.061 1.061l-1.47 1.47 1.47 1.469Zm5-.94-2 2a.748.748 0 0 1-1.061 0 .75.75 0 0 1 0-1.061l1.47-1.47-1.47-1.47a.75.75 0 1 1 1.061-1.061l2 2a.752.752 0 0 1 0 1.062Z"/></svg>
